app/assets/images/ico-refresh.svg

<svg xmlns="http://www.w3.org/2000/svg" viewBox="0 0 20 20"><path d="M19.66 12.17A9.92 9.92 0 013.1 17.24l-1.68 1.68a.83.83 0 01-.59.25.84.84 0 01-.83-.84V12.5a.84.84 0 01.83-.83h5.84a.84.84 0 01.83.83.83.83 0 01-.25.59l-1.78 1.78a6.64 6.64 0 0010.21-1.38 10.5 10.5 0 00.69-1.49.4.4 0 01.39-.3h2.5a.42.42 0 01.42.42.22.22 0 01-.02.05zM20 7.5a.84.84 0 01-.83.83h-5.84a.84.84 0 01-.83-.83.83.83 0 01.25-.59l1.8-1.8a6.67 6.67 0 00-10.23 1.4A10.5 10.5 0 003.63 8a.4.4 0 01-.39.3H.65a.42.42 0 01-.42-.42v-.05A9.94 9.94 0 0110 0a10.11 10.11 0 016.89 2.76l1.69-1.68a.83.83 0 01.59-.25.84.84 0 01.83.83z" fill="#0071bb"/></svg>

<svg xmlns="http://www.w3.org/2000/svg" viewBox="0 0 20 20"><title>ico-refresh</title><g id="Layer_2" data-name="Layer 2"><g id="Layer_1-2" data-name="Layer 1"><path d="M19.66,12.17A9.92,9.92,0,0,1,3.1,17.24L1.42,18.92a.83.83,0,0,1-.59.25A.84.84,0,0,1,0,18.33V12.5a.84.84,0,0,1,.83-.83H6.67a.84.84,0,0,1,.83.83.83.83,0,0,1-.25.59L5.47,14.87a6.64,6.64,0,0,0,10.21-1.38A10.5,10.5,0,0,0,16.37,12a.4.4,0,0,1,.39-.3h2.5a.42.42,0,0,1,.42.42A.22.22,0,0,1,19.66,12.17ZM20,7.5a.84.84,0,0,1-.83.83H13.33a.84.84,0,0,1-.83-.83.83.83,0,0,1,.25-.59l1.8-1.8A6.67,6.67,0,0,0,4.32,6.51,10.5,10.5,0,0,0,3.63,8a.4.4,0,0,1-.39.3H.65a.42.42,0,0,1-.42-.42V7.83A9.94,9.94,0,0,1,10,0a10.11,10.11,0,0,1,6.89,2.76l1.69-1.68a.83.83,0,0,1,.59-.25.84.84,0,0,1,.83.83Z" fill="#0071bb"/></g></g></svg>
